X:3
T:Innocent Maid THO4.003
M:6/8
L:1/8
Z:vmp. Peter Dunk 2010/11.from a transcription by Fynn Titford-Mock 2007
B:Thompson's Compleat Collection of 200 Favourite Country Dances Volume IV.
Q:3/8=100
K:A
c/d/|ecA AGA|ecA AGA|FdB Ged|cBA BGE|ecA AGA|ecA AGA|FdB Ged|cAA A2:|
|:(A//B//c//d//)|eca eca|eca edc|fdB BbB|BB,B B (A//B//c//d//)|\
eca eca|eca edc|EAc eca|B>AB A2:|
